X:138
M:C
L:1/8
K:C
|:B,|A,<A, A2 E<E A2|G>ED>G B,<G, D>B,|A,<A, A2 E<E A2|GEFD E2A,:|
|:E|C/B,/A, E>A, C/B,/A, E>A,|B,/A,/G, D>G, EG,DG,|C/B,/A, E>G, C/B,/A, E>A,:|
|:B,|A,<A, A2 EE A2|G>ED>G B,<G, D>B,|A,<A, A2 E<E A2|G>EF>D E2A,:|

